X:172
T: ES WAR EINMAL EIN FEINER KNAB
N: E0093A
O: Europa, Mitteleuropa, Deutschland, Bergisches Land
R: erzaehlendes Volks - Lied, Sage, Liebe, Leid, Tod
M: 4/4
L: 1/8
K: F
FA | c2f2d2B2 | c2E2F2
FA | d2c2c2AF | c2A2G2
GA | B3cA2GF | f2d2c3
c | e3ef2d2 | c2E2F2

